X:1
T:Title
%%score { 1 | 2 }
L:1/8
M:4/4
K:Bb
V:1 treble nm="Grand Piano"
V:2 bass 
V:1
 z4 z2[Q:1/4=108] F2 | B2 F2 D2 E2 | F2 G2 F3 F | B2 F2 D2 E2 |[M:7/8] F2 G2 F3 |[M:1/8] F | %6
[M:4/4] [B,DB]2 [DB]2 [DB]2 F2 | [B,DB]2 [EB]2 [DB]3 F | B3 B c3 A |[M:3/4] B4[K:bass] B,,2 |] %10
V:2
 z4 z2 F,2 | B,2 F,2 D,2 E,2 | F,2 G,2 F,3 F, | B,2 F,2 D,2 E,2 |[M:7/8] F,2 G,2 F,3 |[M:1/8] F, | %6
[M:4/4] B,,2 G,2 F,2 F,2 | B,,2 G,2 F,3 F, | B,3 B, C3 A, |[M:3/4] B,4 B,,,2 |] %10

